src/assets/outline/Code.svg

<svg width="24" height="24" viewBox="0 0 24 24"  xmlns="http://www.w3.org/2000/svg">
<path d="M6.88991 15.7495C6.60991 15.7495 6.34991 15.5995 6.21991 15.3395C6.02991 14.9695 6.17991 14.5195 6.55991 14.3295C7.42991 13.8995 8.16991 13.2395 8.69991 12.4395C8.87991 12.1695 8.87991 11.8295 8.69991 11.5595C8.15991 10.7595 7.41991 10.0995 6.55991 9.66954C6.17991 9.48954 6.02991 9.03954 6.21991 8.65954C6.39991 8.28954 6.84991 8.13954 7.21991 8.32954C8.31991 8.87954 9.25991 9.70954 9.93991 10.7295C10.4499 11.4995 10.4499 12.4995 9.93991 13.2695C9.25991 14.2895 8.31991 15.1195 7.21991 15.6695C7.11991 15.7195 6.99991 15.7495 6.88991 15.7495Z" />
<path d="M17 15.75H13C12.59 15.75 12.25 15.41 12.25 15C12.25 14.59 12.59 14.25 13 14.25H17C17.41 14.25 17.75 14.59 17.75 15C17.75 15.41 17.41 15.75 17 15.75Z" />
<path d="M15 22.75H9C3.57 22.75 1.25 20.43 1.25 15V9C1.25 3.57 3.57 1.25 9 1.25H15C20.43 1.25 22.75 3.57 22.75 9V15C22.75 20.43 20.43 22.75 15 22.75ZM9 2.75C4.39 2.75 2.75 4.39 2.75 9V15C2.75 19.61 4.39 21.25 9 21.25H15C19.61 21.25 21.25 19.61 21.25 15V9C21.25 4.39 19.61 2.75 15 2.75H9Z" />
</svg>

<?xml version="1.0" encoding="UTF-8"?>
<svg width="24" height="24" viewBox="0 0 24 24" xmlns="http://www.w3.org/2000/svg">
 <path d="m6.8899 15.75c-0.28 0-0.54-0.15-0.67-0.41-0.19-0.37-0.04-0.82 0.34-1.01 0.87-0.43 1.61-1.09 2.14-1.89 0.18-0.27 0.18-0.61 0-0.88-0.54-0.8-1.28-1.46-2.14-1.89-0.38-0.18-0.53-0.63-0.34-1.01 0.18-0.37 0.63-0.52 1-0.33 1.1 0.55 2.04 1.38 2.72 2.4 0.50999 0.77 0.50999 1.77 0 2.54-0.68 1.02-1.62 1.85-2.72 2.4-0.1 0.05-0.22 0.08-0.33 0.08z"/>
 <path d="m17 15.75h-4c-0.41 0-0.75-0.34-0.75-0.75s0.34-0.75 0.75-0.75h4c0.41 0 0.75 0.34 0.75 0.75s-0.34 0.75-0.75 0.75z"/>
 <path d="m15 22.75h-6c-5.43 0-7.75-2.32-7.75-7.75v-6c0-5.43 2.32-7.75 7.75-7.75h6c5.43 0 7.75 2.32 7.75 7.75v6c0 5.43-2.32 7.75-7.75 7.75zm-6-20c-4.61 0-6.25 1.64-6.25 6.25v6c0 4.61 1.64 6.25 6.25 6.25h6c4.61 0 6.25-1.64 6.25-6.25v-6c0-4.61-1.64-6.25-6.25-6.25h-6z"/>
</svg>
